src/assets/images/github-planet-1.svg

<svg height="632" viewBox="0 0 652 632" width="652" xmlns="http://www.w3.org/2000/svg" xmlns:xlink="http://www.w3.org/1999/xlink"><defs><path id="a" d="m26 316c0 174.522376 141.701481 316 316.5 316s316.5-141.477624 316.5-316-141.701481-316-316.5-316-316.5 141.477624-316.5 316z"/><filter id="b" height="102.4%" width="102.4%" x="-1.2%" y="-1.2%"><feOffset dx="2" dy="-15" in="SourceAlpha" result="shadowOffsetInner1"/><feComposite in="shadowOffsetInner1" in2="SourceAlpha" k2="-1" k3="1" operator="arithmetic" result="shadowInnerInner1"/><feColorMatrix in="shadowInnerInner1" type="matrix" values="0 0 0 0 0   0 0 0 0 0   0 0 0 0 0  0 0 0 0.0543195199 0"/></filter></defs><g fill="none" fill-rule="evenodd" transform="translate(-7)"><use fill="#c98c81" fill-rule="evenodd" xlink:href="#a"/><use fill="#000" filter="url(#b)" xlink:href="#a"/><path d="m28 316c0-173.417098 140.805343-314 314.5-314s314.5 140.582902 314.5 314-140.805343 314-314.5 314-314.5-140.582902-314.5-314z" stroke="#000" stroke-opacity=".08" stroke-width="4"/><g transform="matrix(-.88294759 -.46947156 .46947156 -.88294759 260.027401 646.358026)"><path d="m72.3960388 82.9684554c39.9832282 0 72.3960392-6.4251056 72.3960392-33.6490664 0-27.2239607-9.432316-49.29334145-72.3960392-49.29334145-62.96372334 0-72.3960388 22.06938075-72.3960388 49.29334145 0 27.2239608 32.4128106 33.6490664 72.3960388 33.6490664z" fill="#c98c81"/><ellipse cx="74.161796" cy="25.965603" fill="#000" fill-opacity=".129076" rx="52.972711" ry="14.083812"/></g><g transform="matrix(-.12186934 -.99254615 .99254615 -.12186934 18.144862 431.517174)"><path d="m72.3960388 82.9684554c39.9832282 0 72.3960392-6.4251056 72.3960392-33.6490664 0-27.2239607-9.432316-49.29334145-72.3960392-49.29334145-62.96372334 0-72.3960388 22.06938075-72.3960388 49.29334145 0 27.2239608 32.4128106 33.6490664 72.3960388 33.6490664z" fill="#c98c81"/><ellipse cx="74.161796" cy="25.965603" fill="#000" fill-opacity=".129076" rx="52.972711" ry="14.083812"/></g><g fill="#000" fill-opacity=".120952" transform="translate(102 57)"><path d="m263.943386 483.929406c-28.227149 0-51.109774-13.986298-51.109774-31.239271s22.882625-31.239271 51.109774-31.239271c28.227148 0 51.109774 13.986298 51.109774 31.239271s-22.882626 31.239271-51.109774 31.239271zm-3.909765 19.538411c-19.254897 0-48.397895-8.336758-58.419093-41.461923 23.3449 29.006706 46.473514 29.006706 58.419093 29.006706s45.164713 0 69.84337-32.34862c-16.2075 39.467868-50.588473 44.803837-69.84337 44.803837z"/><path d="m31.9844238 428.151932c13.4228068 4.359613 26.465997 1.242897 29.1327808-6.961379 2.6667837-8.204276-6.0526958-18.38932-19.4755026-22.748933-13.4228069-4.359612-26.4659971-1.242897-29.1327808 6.96138-2.66678379 8.204276 6.0526957 18.38932 19.4755026 22.748932zm-4.8792466 8.687214c9.1562479 2.97387 26.3301501 5.746522 40.1378035-10.518357-16.7355091 11.571126-32.5321463 6.440514-38.2126065 4.595549s-16.67877-5.417121-23.29637678-22.816191c-.35477789 17.299701 12.21493198 25.765128 21.37117978 28.738999z" transform="matrix(.94551858 .32556815 -.32556815 .94551858 138.007001 10.883523)"/><path d="m106.735991 147.863157c26.513137-18.587403 36.594932-44.242362 22.518318-57.3019558-14.076614-13.0595937-46.9811085-8.5784193-73.4942461 10.0089828-26.5131375 18.587403-36.594932 44.242362-22.5183182 57.301956s46.9811086 8.578419 73.4942463-10.008983zm-31.3247536 37.77894c28.8884966-4.454729 53.6931826-29.407013 65.3746156-57.483437-20.247798 29.458018-52.2459215 41.912317-69.1204273 44.926233-16.8745059 3.013917-39.8946053 4.01205-58.8940682-19.641756 15.812783 32.427881 33.7513833 36.653688 62.6398799 32.19896z" transform="matrix(.99026807 -.1391731 .1391731 .99026807 -18.055127 12.000304)"/><path d="m253.976098 56.6804537c16.609415 18.1796963 39.377741 24.6581871 50.85448 14.4701142s7.315883-33.1846935-9.293532-51.3643898c-16.609416-18.17969628-39.377742-24.65818706-50.854481-14.47011417-11.476739 10.18807287-7.315883 33.18469347 9.293533 51.36438977zm71.1605 13.2262877c-26.964337 30.1504686-48.211163 18.3678936-55.990824 15.7716416s-28.212469-11.7399606-35.630758-32.3001299c-.116695 21.1066365 20.83804 45.1227348 36.719044 50.4387879 15.881005 5.316053 38.009219 5.369788 54.902538-33.9102996z"/><path d="m333.785609 281.136687c-.236771 13.279281 17.101407 24.231333 38.725904 24.462094 21.624497.23076 39.346555-10.347156 39.583326-23.626437.23677-13.279281-17.101408-24.231334-38.725905-24.462094-21.624496-.230761-39.346555 10.347155-39.583325 23.626437zm33.293832 36.867788c16.247478.675987 44.7778-2.093352 51.920559-20.455812-23.992938 15.49035-48.789872 15.420172-64.950981 12.665514-16.161108-2.754658-20.473192-7.646107-28.56986-18.829624-1.218924 19.193668 25.352805 25.943935 41.600282 26.619922z"/></g></g></svg>

<?xml version="1.0" encoding="UTF-8"?>
<svg width="652px" height="632px" viewBox="0 0 652 632" version="1.1" xmlns="http://www.w3.org/2000/svg" xmlns:xlink="http://www.w3.org/1999/xlink">
    <!-- Generator: Sketch 43.2 (39069) - http://www.bohemiancoding.com/sketch -->
    <title>Planet</title>
    <desc>Created with Sketch.</desc>
    <defs>
        <path d="M26,316 C26,490.522376 167.701481,632 342.5,632 C517.298519,632 659,490.522376 659,316 C659,141.477624 517.298519,0 342.5,0 C167.701481,0 26,141.477624 26,316 Z" id="path-1"></path>
        <filter x="-1.2%" y="-1.2%" width="102.4%" height="102.4%" filterUnits="objectBoundingBox" id="filter-2">
            <feOffset dx="2" dy="-15" in="SourceAlpha" result="shadowOffsetInner1"></feOffset>
            <feComposite in="shadowOffsetInner1" in2="SourceAlpha" operator="arithmetic" k2="-1" k3="1" result="shadowInnerInner1"></feComposite>
            <feColorMatrix values="0 0 0 0 0   0 0 0 0 0   0 0 0 0 0  0 0 0 0.0543195199 0" type="matrix" in="shadowInnerInner1"></feColorMatrix>
        </filter>
    </defs>
    <g id="Illu" stroke="none" stroke-width="1" fill="none" fill-rule="evenodd">
        <g id="BG" transform="translate(-1423.000000, 0.000000)">
            <g id="Top">
                <g id="Planet" transform="translate(1416.000000, 0.000000)">
                    <g>
                        <use fill="#C98C81" fill-rule="evenodd" xlink:href="#path-1"></use>
                        <use fill="black" fill-opacity="1" filter="url(#filter-2)" xlink:href="#path-1"></use>
                        <path stroke-opacity="0.08" stroke="#000000" stroke-width="4" d="M28,316 C28,142.582902 168.805343,2 342.5,2 C516.194657,2 657,142.582902 657,316 C657,489.417098 516.194657,630 342.5,630 C168.805343,630 28,489.417098 28,316 Z"></path>
                    </g>
                    <g id="Pump-5" transform="translate(215.496770, 575.679013) rotate(208.000000) translate(-215.496770, -575.679013) translate(142.996770, 534.179013)">
                        <path d="M72.3960388,82.9684554 C112.379267,82.9684554 144.792078,76.5433498 144.792078,49.319389 C144.792078,22.0954283 135.359762,0.0260475536 72.3960388,0.0260475536 C9.43231546,0.0260475536 3.48872763e-13,22.0954283 3.48872763e-13,49.319389 C3.48872763e-13,76.5433498 32.4128106,82.9684554 72.3960388,82.9684554 Z" id="Oval-27" fill="#C98C81"></path>
                        <ellipse id="Oval-28" fill-opacity="0.129076087" fill="#000000" cx="74.1617959" cy="25.9656031" rx="52.9727113" ry="14.0838118"></ellipse>
                    </g>
                    <g id="Pump-9" transform="translate(50.500000, 354.500000) rotate(-97.000000) translate(-50.500000, -354.500000) translate(-22.000000, 313.000000)">
                        <path d="M72.3960388,82.9684554 C112.379267,82.9684554 144.792078,76.5433498 144.792078,49.319389 C144.792078,22.0954283 135.359762,0.0260475536 72.3960388,0.0260475536 C9.43231546,0.0260475536 3.10109123e-13,22.0954283 3.10109123e-13,49.319389 C3.10109123e-13,76.5433498 32.4128106,82.9684554 72.3960388,82.9684554 Z" id="Oval-27" fill="#C98C81"></path>
                        <ellipse id="Oval-28" fill-opacity="0.129076087" fill="#000000" cx="74.1617959" cy="25.9656031" rx="52.9727113" ry="14.0838118"></ellipse>
                    </g>
                    <g id="Craters-7" transform="translate(102.000000, 57.000000)" fill-opacity="0.120952219" fill="#000000">
                        <path d="M263.943386,483.929406 C235.716237,483.929406 212.833612,469.943108 212.833612,452.690135 C212.833612,435.437162 235.716237,421.450864 263.943386,421.450864 C292.170534,421.450864 315.05316,435.437162 315.05316,452.690135 C315.05316,469.943108 292.170534,483.929406 263.943386,483.929406 Z M260.033621,503.467817 C240.778724,503.467817 211.635726,495.131059 201.614528,462.005894 C224.959428,491.0126 248.088042,491.0126 260.033621,491.0126 C271.9792,491.0126 305.198334,491.0126 329.876991,458.66398 C313.669491,498.131848 279.288518,503.467817 260.033621,503.467817 Z" id="Crater"></path>
                        <path d="M31.9844238,428.151932 C45.4072306,432.511545 58.4504208,429.394829 61.1172046,421.190553 C63.7839883,412.986277 55.0645088,402.801233 41.641702,398.44162 C28.2188951,394.082008 15.1757049,397.198723 12.5089212,405.403 C9.84213741,413.607276 18.5616169,423.79232 31.9844238,428.151932 L31.9844238,428.151932 Z M27.1051772,436.839146 C36.2614251,439.813016 53.4353273,442.585668 67.2429807,426.320789 C50.5074716,437.891915 34.7108344,432.761303 29.0303742,430.916338 C23.349914,429.071373 12.3516042,425.499217 5.73399742,408.100147 C5.37921953,425.399848 17.9489294,433.865275 27.1051772,436.839146 L27.1051772,436.839146 Z" id="Crater-15" transform="translate(36.484816, 417.790421) rotate(19.000000) translate(-36.484816, -417.790421) "></path>
                        <path d="M106.735991,147.863157 C133.249128,129.275754 143.330923,103.620795 129.254309,90.5612012 C115.177695,77.5016075 82.2732005,81.9827819 55.7600629,100.570184 C29.2469254,119.157587 19.1651309,144.812546 33.2417447,157.87214 C47.3183585,170.931734 80.2228533,166.450559 106.735991,147.863157 L106.735991,147.863157 Z M75.4112374,185.642097 C104.299734,181.187368 129.10442,156.235084 140.785853,128.15866 C120.538055,157.616678 88.5399315,170.070977 71.6654257,173.084893 C54.7909198,176.09881 31.7708204,177.096943 12.7713575,153.443137 C28.5841405,185.871018 46.5227408,190.096825 75.4112374,185.642097 L75.4112374,185.642097 Z" id="Crater-8" transform="translate(76.778605, 135.100323) rotate(-8.000000) translate(-76.778605, -135.100323) "></path>
                        <path d="M253.976098,56.6804537 C270.585513,74.86015 293.353839,81.3386408 304.830578,71.1505679 C316.307317,60.962495 312.146461,37.9658744 295.537046,19.7861781 C278.92763,1.60648182 256.159304,-4.87200896 244.682565,5.31606393 C233.205826,15.5041368 237.366682,38.5007574 253.976098,56.6804537 L253.976098,56.6804537 L253.976098,56.6804537 Z M325.136598,69.9067414 C298.172261,100.05721 276.925435,88.274635 269.145774,85.678383 C261.366113,83.082131 240.933305,73.9384224 233.515016,53.3782531 C233.398321,74.4848896 254.353056,98.5009879 270.23406,103.817041 C286.115065,109.133094 308.243279,109.186829 325.136598,69.9067414 L325.136598,69.9067414 Z" id="Crater-22"></path>
                        <path d="M333.785609,281.136687 C333.548838,294.415968 350.887016,305.36802 372.511513,305.598781 C394.13601,305.829541 411.858068,295.251625 412.094839,281.972344 C412.331609,268.693063 394.993431,257.74101 373.368934,257.51025 C351.744438,257.279489 334.022379,267.857405 333.785609,281.136687 L333.785609,281.136687 L333.785609,281.136687 Z M367.079441,318.004475 C383.326919,318.680462 411.857241,315.911123 419,297.548663 C395.007062,313.039013 370.210128,312.968835 354.049019,310.214177 C337.887911,307.459519 333.575827,302.56807 325.479159,291.384553 C324.260235,310.578221 350.831964,317.328488 367.079441,318.004475 L367.079441,318.004475 Z" id="Crater-23"></path>
                    </g>
                </g>
            </g>
        </g>
    </g>
</svg>
